public/play.svg

<svg width="25" height="24" viewBox="0 0 25 24" fill="none" xmlns="http://www.w3.org/2000/svg">
<path d="M12.47 2C6.94997 2 2.46997 6.48 2.46997 12C2.46997 17.52 6.94997 22 12.47 22C17.99 22 22.47 17.52 22.47 12C22.47 6.48 18 2 12.47 2ZM15.47 14.23L12.57 15.9C12.21 16.11 11.81 16.21 11.42 16.21C11.02 16.21 10.63 16.11 10.27 15.9C9.54997 15.48 9.11997 14.74 9.11997 13.9V10.55C9.11997 9.72 9.54997 8.97 10.27 8.55C10.99 8.13 11.85 8.13 12.58 8.55L15.48 10.22C16.2 10.64 16.63 11.38 16.63 12.22C16.63 13.06 16.2 13.81 15.47 14.23Z" fill="#30AF5B"/>
</svg>

<svg width="25" height="24" fill="none" xmlns="http://www.w3.org/2000/svg"><path d="M12.47 2c-5.52 0-10 4.48-10 10s4.48 10 10 10 10-4.48 10-10S18 2 12.47 2Zm3 12.23-2.9 1.67a2.285 2.285 0 0 1-2.3 0 2.285 2.285 0 0 1-1.15-2v-3.35c0-.83.43-1.58 1.15-2 .72-.42 1.58-.42 2.31 0l2.9 1.67c.72.42 1.15 1.16 1.15 2 0 .84-.43 1.59-1.16 2.01Z" fill="#30AF5B"/></svg>
